X: 78
T: Paddy Clancy's Jig
R: jig
Z: 2012 John Chambers <jc@trillian.mit.edu>
B: "100 Essential Irish Session Tunes" 1995 Dave Mallinson, ed.
M: 6/8
L: 1/8
K: D
f |\
"D"afd "G"edB | "D"dcd "A"AFA | "D"dcd "Em"ede | "D"fef "A7"efg |\
"D"afd "G"edB | "D"dcd "A"AFA | "G"dcd "A7"efg | "D"fdd d2 :|
|: e |\
"D"faf "G"gbg | "D"faf fed | fef "G"gfg | "D"afd "A7"e2d |\
"D"faf "G"gbg | "D"faf fed | fef "A7"ede | "D"fdd d2 :|

%%sep 2 1 500
%%sep 1 1 500

